X: 1
T: Earl Of Mansfield's March, The
Z: ceolachan
S: https://thesession.org/tunes/8052#setting8052
R: barndance
M: 4/4
L: 1/8
K: Dmaj
|: f<e |d2- d>e d2 A2 | d>ef>g a2 g<f | e2- e>f e2 A2 | c>de>f g2 f<e |
d2- d>e d2 A2 | d>ef>g a2 g<f | g2 e2 c2 A2 | d4 d2 :|
|: a>g |f2- f>g f2 A2 | d>ef>g a2 g<f | e2- e>f e2 A2 | c>de>f g2 f<e |
f2- f>g f2 A2 | d>ef>g a2 g<f | g2- g>e c2 A2 | d4 d2 :|
|: ag |f2 d2 d2 a>g | f2 d2 d2 e<f | g2 A2 c2 e2 |
[1 c2 A2 A2 a>g | f2 d2 d2 a>g | f2 d2 d2 e<f | g2 e2 c2 A2 | d4 d2 :|
[2 c2 A2 A2- AB/c/ | d2- d>e d2 A2 | d>efg a2 g<f | g2 e2 c2 a2 | d4- d2 |]
